X: 1764
T:2
S:irtrad-l, J.Myers, 8/97
M:4/4
L:1/8
R:reel
K:G
|B2 cA B2 ge|d2 ge dBGA|B2 BA Bdge|dBAc BG G2:||
gfed ed (3Bcd|gfed e3 f|1gfed efge|a2 ge d3 f:|2gbag fagf|efge dBFG||
